X: 1035
T: Hicaz-Hümâyûn Peşrev
C: Vardakosta Seyyid Ahmed Ağa
O: Turkey
F: http://compmusic.upf.edu/node/140
N: hicaz-humayun--pesrev--devrikebir----musahib_ahmed_aga
N: makam= hicaz-humayun
N: form= pesrev
N: usul= devrikebir = 28/4
M: 28/4
L: 1/16
K: C _7/8B ^c  
Q: 1/4=81
%%MIDI tuningsystem comma53
d8 c4 d4 c4 d4 d4  | e4 d4 c4 B8 A2 B2 c2 d2  | \
w:   |   | 
c4 d4 c4 B4 A8 B8 c4 d4 c2 B2 A4 A6 z2  | 
w:   | 
c4 B2 c2 B4 A4 B8 B4  | z4 c4 d4 d6 z2 =B2 c2 B2 c2  | \
w:   |   | 
d4 e4 d6 f2 e4 d4 c4  | 
w:   | 
B4 A4 G4 d8 c4 d4  | c4 d4 d4 e4 d4 c4 B8 A2 B2 c2 d2 c4 d4 c4 B4  | 
w:   |   | 
A8 B8 c4 d4 c2 B2  | A4 A4 z4 c4 B2 c2 B4 A4  | \
w:   |   | 
B8 B4 e4 d4 c2 d2 c4  | 
w:   | 
B2 c2 B4 A4 A6 z2 A8  | A4 =B4 =c8 B4 A4 G4  | \
w:   |   | 
A2 G2 ^F2 E4 D4 F8 G8 A4 B2 c2 B4 A4 G4 F4 G6 z2 A4 B2 c2 B4 c4 B4 A4 G8 c4 d4 d4 c4 B4 A4 G4 F4 G8 e4 d4 c8 c4 B4 e2 d2 c4 B3 A G2 A2 G4 A4 A6 z2 A8 A4 =B4 =c8 B4 A4 G4 A2 G2 F2 E4 D4 F8 G8 A4 _7/8B2 ^c2 B4 A4 G4 F4  | 
w:   | 
G6 z2 A4 B2 c2 B4 c4 B4  | A4 G8 c4 d4 d4 c4  | \
w:   |   | 
B4 A4 G4 ^F4 G8 e4  | d4 c8 c4 B4 e2 d2 c4  | 
w:   |   | 
B3 A G2 A2 G4 A4 A6 z2 A8 A4 B4 A6 B2 c4 d4  | \
w:   | 
B4 c4 d8 G8 A4  | B4 G12 z4 G4 A4  | 
w:   |   | 
A4 G2 A2 B8 B4 A4 G6 A2 B4 c2 d2 c4 d4 d4 c4  | \
w:   | 
B4 A4 G4 ^F4 G6 z2 e4  | 
w:   | 
d4 c8 c4 B4 d6 c2  | B3 A G2 A2 G4 A4 A6 z2 A8 A4 B4 A6 B2 c4 d4  | 
w:   |   | 
B4 c4 d6 z2 A8 B8 c8 c4 d4 c4 B4  | \
w:   | 
A8 d2 e2 d2 c2 d4 e4 d4  | c4 B6 z2 c2 d2 c2 B2 c4 d4  | 
w:   |   | 
c4 B4 A4 B4 G8 e8 c4 d4 d4 c4 =B6 c2  | \
w:   | 
d4 e2 f2 e2 d2 c4 c4 d4 c6 z2 e2 d2 e4 d6 z2 g4 ^f2 a2  | 
w:   | 
g3 ^f e4 e4 z4 c2 d2 c4 d8 e6 g2 f4 e4 d4 c4  | \
w:   | 
d6 z2 c4 d4 d4 c4 c2 B2  | 
w:   | 
A4 B4 c2 d2 c4 d4 d4 c4  | B4 A4 G4 ^F4 G6 z2 e8 c4 d4 d4 c4 =B2 c2 B2 c2  | 
w:   |   | 
d4 e2 f2 e2 d2 c4 c4 d4 c6 z2 e2 d2 e4 d6 e2 ^f4 g4  | \
w:   | 
^f4 g4 a8 f8 g8 a8 _1/4b4 a4 g4 f4  | 
w:   | 
g8 ^f4 g2 a2 g4 a4 f4  | e4 d2 e2 ^f4 f8 f4 e4  | \
w:   |   | 
d4 c4 B4 c4 A6 z2 e4  | 
w:   | 
d4 e2 d2 c4 c4 B4 d6 c2  | B3 A G2 A2 G4 A4 A6 z2 A8 A4 _1/4B4 =c8 B4 A4  | 
w:   |   | 
G4 A2 G2 ^F2 E4 D4 F8 G8 A4 B2 c2 B4 A4 G4 F4 G6 z2 A4 B2 c2 B4 c4 B4 A4 G8 c4 d4 d4 c4 B4 A4 G4 F4 G8 e4 d4 c8 c4 B4 e2 d2 c4 B3 A G2 A2 G4 A4 A6 z2 A8 A4 =B4 =c8 B4 A4 G4 A2 G2 F2 E4 D4 F8  | 
w:   | 
G8 A4 B2 c2 B4 A4 G4  | ^F4 G6 z2 A4 B2 c2 B4 c4  | \
w:   |   | 
B4 A4 G8 c4 d4 d4  | 
w:   | 
c4 B4 A4 G4 ^F4 G8  | e4 d4 c8 c4 B4 e2 d2  | \
w:   |   | 
c4 B3 A G2 A2 G4 A4 A6 z2  | 
w:   | 
A8 A4 B4 A6 B2 c4  | d4 B4 c4 d8 G8  | \
w:   |   | 
A4 B4 G12 z4 G4  | A4 A4 G2 A2 B8 B4 A4  | 
w:   |   | 
G6 A2 B4 c2 d2 c4 d4 d4  | c4 B4 A4 G4 ^F4 G6 z2  | \
w:   |   | 
e4 d4 c8 c4 B4 d6 c2 B3 A G2 A2 G4 A4 A6 z2  | 
w:   | 
A8 A4 B4 A6 B2 c4  | d4 B4 c4 d6 z2 A8  | \
w:   |   | 
B8 c8 c4 d4 c4  | B4 A8 d2 e2 d2 c2 d4 e4  | 
w:   |   | 
d4 c4 B6 z2 c2 d2 c2 B2 c4  | d4 c4 B4 A4 B4 G8  | \
w:   |   | 
e8 c4 d4 d4 c4 =B6 c2 d4 e2 f2 e2 d2 c4 c4 d4  | 
w:   | 
c6 z2 e2 d2 e4 d6 z2 g4  | ^f2 a2 g3 f e4 e4 z4 c2 d2 c4  | \
w:   |   | 
d8 e6 g2 ^f4 e4 d4  | 
w:   | 
c4 d6 z2 c4 d4 d4 c4  | c2 B2 A4 B4 c2 d2 c4 d4 d4  | \
w:   |   | 
c4 B4 A4 G4 ^F4 G6 z2  | 
w:   | 
e8 c4 d4 d4 c4 =B2 c2  | =B2 c2 d4 e2 f2 e2 d2 c4 c4 d4  | \
w:   |   | 
c6 z2 e2 d2 e4 d6 e2 ^f4  | 
w:   | 
g4 ^f4 g4 a8 f8  | g8 a8 _1/4b4 a4 g4  | \
w:   |   | 
^f4 g8 f4 g2 a2 g4 a4  | ^f4 e4 d2 e2 f4 f8 f4  | 
w:   |   | 
e4 d4 c4 B4 c4 A6 z2  | e4 d4 e2 d2 c4 c4 B4 d6 c2 B3 A G2 A2 G4 A4 A6 z2  | 
w:   |   | 
A8 A4 _1/4B4 =c8 B4  | A4 G4 A2 G2 ^F2 E4 D4 F8 A4 ^G4 F4 ^E4 F8 G4 A4 A4 G2 z2 F8 F4 E4 F4 E4 F4 G4 A8 A4 B4 A8 G8 A8 B8 c4 d4 c4 d2 e2 d2  | 
w:   |   | 
c2 =B4 B8 c4 d4 c8 d4 e4 d8 e16 d6 c2 _7/8B4 A4 c2 d2 c4 d2 e2 d4 e6 g2 ^f4 e4 d4 c4 d6 z2 ^e4 f4 f4 e4 f4 e4 f4 ^g2 a2 g4 a4 a4 g4 ^1/4f4 =e4 d4 c4 d6  | 
w:   | 
z2 =b8 ^g4 a4 a4 g4 ^9/8f2  | ^9/8g2 ^9/8f2 g2 a4 =b2 =c'2 b2 a2 ^g4 g4 a4 g6 z2 b4 g4 a12 a2 a2 a6 a2 a6 z2 a8 a4 b4 a8 b4 a4 g8 a4 g4 ^1/4e8 g4 =f4 g3 ^1/4f =e4 e4 e4 d2 e2 ^f2 =g2 f4 g4 f4 e4 d4 c4 ^1/4e8 ^g4 =f4 g3 ^1/4f =e4 e4 e4 d2  | 
w:   |   | 
e2 ^f2 g2 f4 g4 f4 e4 d4 c4 d6 z2 =b8 ^g4 a4 a4 g4 ^9/8f2 ^9/8g2 f2 g2 a4 b2 =c'2 b2 a2 ^g4 g4 a4 g6 z2 b4 g4 a12 a2 a2 a6 a2 a6  | 
w:   | 
z2 a8 a4 =b4 a8 b4 a4 ^g8 a4 g4 ^1/4e8 g4 f4 g3 ^1/4f =e4 e4 e4 d2  | \
w:   | 
e2 ^f2 g2 f4 g4 f4 e4 d4 c4 ^1/4e8 ^g4 =f4 g3 ^1/4f =e4 e4 e4 d2 e2 ^f2 =g2 f4 g4 f4 e4 d4 c4 a8 a4 g4 a3 g a2 _1/4b2 a4 b4 a4 g4 f6  | 
w:   | 
z2 ^f4 g2 a2 g4 a4 g4 f4 e4 d4 e4 f4 f4 e4 d4 c4 B4 c4 A8 e4 d4 c8 c4 B4 d3 c B3 A G2 G2 G4 A4 A4 B4 c8 d8 e8 f8 g8 a6 z2 a8 a4 g4 a3 g a2  | 
w:   | 
_1/4b2 a4 b4 a4 g4 ^f6 z2 f4 g2 a2 g4 a4 g4 f4 e4 d4 e4 f4 f4 e4 d4 c4 B4 c4 A6 z2 e4 d4 e2 d2 c4 c4 B4 d3 c B3 A G2 A2 G4 A4 A6 z2 A8 A4 _1/4B4 =c8 B4 A4 G4 A2 G2 F2 E4  | 
w:   | 
D4 ^F8 G8 A4 B2 c2  | B4 A4 G4 ^F4 G6 z2 A4  | \
w:   |   | 
B2 c2 B4 c4 B4 A4 G8  | c4 d4 d4 c4 B4 A4 G4  | 
w:   |   | 
^F4 G8 e4 d4 c8  | c4 B4 e2 d2 c4 B3 A G2 A2 G4  | \
w:   |   | 
A4 A6 z2 A8 A4 =B4  | 
w:   | 
=c8 =B4 A4 G4 A2 G2 ^F2 E4 D4 F8 G8 A4 _7/8B2  | \
w:   | 
c2 B4 A4 G4 ^F4 G6 z2 A4 B2 c2 B4 c4 B4 A4 G8 c4 d4 d4 c4 B4 A4 G4 F4 G8 e4 d4 c8 c4 B4 e2 d2 c4 B3 A G2 A2 G4 A4 A6 z2 A8 A4 B4 A6 B2 c4 d4 B4 c4 d8 G8 A4 B4 G12 z4 G4 A4 A4 G2 A2 B8 B4 A4 G6 A2 B4 c2  | 
w:   | 
d2 c4 d4 d4 c4 B4 A4 G4 ^F4 G6 z2 e4 d4 c8 c4 B4 d6 c2 B3 A G2 A2 G4 A4 A6 z2 A8 A4 B4 A6 B2 c4 d4 B4 c4 d6 z2 A8 B8 c8 c4 d4 c4 B4 A8 d2  | 
w:   | 
e2 d2 c2 d4 e4 d4 c4 B6  | z2 c2 d2 c2 B2 c4 d4 c4 B4 A4 B4 G8 e8 c4 d4 d4 c4 =B6 c2 d4 e2 f2 e2  | 
w:   |   | 
d2 c4 c4 d4 c6 z2 e2 d2 e4 d6 z2 g4 ^f2 a2 g3 f e4 e4 z4 c2 d2 c4 d8 e6  | 
w:   | 
g2 ^f4 e4 d4 c4 d6 z2 c4 d4 d4 c4 c2 B2 A4 B4 c2  | \
w:   | 
d2 c4 d4 d4 c4 B4 A4 G4 ^F4 G6 z2 e8 c4 d4 d4 c4 =B2 c2 B2 c2 d4 e2 f2 e2  | 
w:   | 
d2 c4 c4 d4 c6 z2 e2 d2 e4 d6 e2 ^f4 g4 f4 g4 a8 f8 g8 a8 _1/4b4 a4 g4 f4 g8 f4 g2 a2 g4 a4 f4 e4 d2 e2 f4 f8 f4 e4 d4 c4 B4 c4 A6 z2 e4 d4 e2 d2 c4 c4 B4 d6 c2 B3 A G2 A2 G4 A4 A6 z2 A8 A4 _1/4B4 =c8 B4 A4 G4 A2 G2 ^F2  | 
w:   | 
E4 D4 ^F8 A4 ^G4 F4  | ^E4 ^F8 ^G4 A4 A4 G2 z2  | \
w:   |   | 
^F8 F4 ^E4 F4 E4 F4  | ^G4 A8 A4 B4 A8  | 
w:   |   | 
^G8 A8 B8 c4  | d4 c4 d2 e2 d2 c2 =B4 B8  | \
w:   |   | 
c4 d4 c8 d4 e4 d8 e16 d6 c2  | 
w:   | 
B4 A4 c2 d2 c4 d2 e2 d4 e6 g2 ^f4 e4 d4 c4 d6 z2  | \
w:   | 
^e4 ^f4 f4 e4 f4 e4 f4  | 
w:   | 
^g2 a2 g4 a4 a4 g4 ^1/4f4 e4  | d4 c4 d6 z2 =b8 ^g4  | \
w:   |   | 
a4 a4 ^g4 ^9/8f2 ^9/8g2 f2 g2 a4 =b2 =c'2  | 
w:   | 
=b2 a2 ^g4 g4 a4 g6 z2 b4  | ^g4 a12 a2 a2 a6 a2  | \
w:   |   | 
a6 z2 a8 a4 =b4 a8 b4 a4 ^g8 a4 g4  | 
w:   | 
^1/4e8 ^g4 f4 g3 ^1/4f =e4 e4  | e4 d2 e2 ^f2 g2 f4 g4 f4 e4  | \
w:   |   | 
d4 c4 ^1/4e8 ^g4 f4 g3 ^1/4f  | 
w:   | 
e4 e4 e4 d2 e2 ^f2 g2 f4 g4  | ^f4 e4 d4 c4 d6 z2 =b8 ^g4 a4 a4 g4 ^9/8f2 ^9/8g2 f2 g2  | 
w:   |   | 
a4 =b2 =c'2 b2 a2 ^g4 g4 a4 g6 z2 b4 g4 a12 a2 a2  | \
w:   | 
a6 a2 a6 z2 a8 a4  | 
w:   | 
=b4 a8 b4 a4 ^g8  | a4 ^g4 ^1/4e8 g4 f4 g3 ^1/4f  | \
w:   |   | 
e4 e4 e4 d2 e2 ^f2 g2 f4 g4  | 
w:   | 
^f4 e4 d4 c4 ^1/4e8 ^g4  | f4 ^g3 ^1/4f e4 e4 e4 d2 e2 ^f2 =g2  | \
w:   |   | 
^f4 g4 f4 e4 d4 c4 a8 a4 g4 a3 g a2 _1/4b2 a4 b4  | 
w:   | 
a4 g4 ^f6 z2 f4 g2 a2 g4  | a4 g4 ^f4 e4 d4 e4 f4  | \
w:   |   | 
^f4 e4 d4 c4 B4 c4 A8 e4 d4 c8 c4 B4  | 
w:   | 
d3 c B3 A G2 G2 G4 A4 A4 B4  | c8 d8 e8 ^f8 g8 a6 z2 a8  | \
w:   |   | 
a4 g4 a3 g a2 _1/4b2 a4 b4 a4  | 
w:   | 
g4 ^f6 z2 f4 g2 a2 g4 a4  | g4 ^f4 e4 d4 e4 f4 f4  | \
w:   |   | 
e4 d4 c4 B4 c4 A6 z2  | 
w:   | 
e4 d4 e2 d2 c4 c4 B4 d3 c  | B3 A G2 A2 G4 A4 A6 z2 A8 A4 _1/4B4 =c8 B4 A4  | 
w:   |   | 
G4 A2 G2 F2 E4 D4 A8 A4 B4 A6 B2 c4 d4 c2 d2 c2  | \
w:   | 
d2 e8 c2 d2 c4 d2 e2 d4 e8 ^f4 e4 d4 c4 d4 z4 =f8 f4 e4 f2 g2 f4 g2  | 
w:   | 
a2 g4 a8 a4 b4 a8 ^g8 a2 b2 a4 b2 c'2 b4 c'6 d'2 c'4 d'4 c'4 b4 a8 a4 b4 b4 a4 g2 a2 g2 a2 b4 c'2 d'2 c'3 b a4 a4 a2 a2 a8 a4 z4 A2 B2 A4 B2 c2 B4 c8 c4 d2 e2 d2 c2 =B4 B8 c4 d4 c8 d4 e4 d8 e8 e4 ^1/4f4 e8 ^9/8d8 e2 f2 e4 f2 g2 f4 g8 g4 a4 g4 f4 e8 e4 f4 f4 e4 d6 e2 f4 g4 e6 f2 g4 a4 g4 a4 =b8 g2 a2 g4 a2 b2 a4 b8 c'4 b4 a4 g4 a4 z4 g4 a4 a4 b4 a4 g4 f4 g2 a2 g4 a4 a4 g4 f4 e4 =d4 c4 d4 z4 b8 g4 a4 a4 g4 ^9/8f2 g2 f2 g2 a4 b2  | 
w:   | 
c'2 =b2 a2 ^g4 g4 z4 g8 b4 g4 a12 a2 a2 a6  | \
w:   | 
a2 a6 z2 A2 B2 A2 B2 c4 d4 c4 B4 A8 A4 A2 A2 A8 |
w:   | 


